X:48
T: MEIN SCHATZ DER GIENG ZUM BERG HINAUF
N: E0663
O: Europa, Mitteleuropa, Deutschland, Nieder - Hessen, Rengertshausen
R: Liebes - Lied
M: 4/4
L: 1/8
K: F
C2 | F3EF2G2 | A3GF2
FA | c2c2d2d2 | c3BA2
FA | c4d4 | B2A2G3
A | B4c4 | A2G2F2
d2 | c2A2G4 | F4z2

@@@ Tune index: 4361
